assets/images/icons/key-03.svg

<svg width="40" height="40" viewBox="0 0 40 40" fill="none" xmlns="http://www.w3.org/2000/svg">
<g clip-path="url(#clip0_379_9291)">
<path opacity="0.1" d="M0.278944 28.9522C-0.0736318 25.9401 -0.122607 22.9843 0.310078 20.3101C0.84212 17.0218 2.23117 13.3636 3.74867 10.092C6.71454 3.69799 12.0239 1.46106 18.489 0.452582C27.5008 -0.953153 39.9215 0.452613 40 11.3589C39.5479 15.2591 36.5646 26.1018 26.4939 26.9292C23.1642 27.2028 21.9185 30.5473 20.4515 34.3758C16.5911 44.4503 1.56969 39.9794 0.278944 28.9522Z" fill="#015637"/>
<path d="M31.8754 11.5625H28.4379V8.125C28.4379 7.7106 28.2732 7.31317 27.9802 7.02015C27.6872 6.72712 27.2898 6.5625 26.8754 6.5625H8.12535C7.71095 6.5625 7.31352 6.72712 7.0205 7.02015C6.72747 7.31317 6.56285 7.7106 6.56285 8.125V28.75C6.56285 29.9932 7.05671 31.1855 7.93579 32.0646C8.81486 32.9436 10.0071 33.4375 11.2504 33.4375H30.0004C30.912 33.4375 31.7864 33.0753 32.431 32.4307C33.0757 31.786 33.4379 30.9117 33.4379 30V13.125C33.4379 12.7106 33.2732 12.3132 32.9802 12.0201C32.6872 11.7271 32.2898 11.5625 31.8754 11.5625ZM18.7504 27.8125H11.2504C11.0017 27.8125 10.7633 27.7137 10.5874 27.5379C10.4116 27.3621 10.3129 27.1236 10.3129 26.875C10.3129 26.6264 10.4116 26.3879 10.5874 26.2121C10.7633 26.0363 11.0017 25.9375 11.2504 25.9375H18.7504C18.999 25.9375 19.2374 26.0363 19.4133 26.2121C19.5891 26.3879 19.6879 26.6264 19.6879 26.875C19.6879 27.1236 19.5891 27.3621 19.4133 27.5379C19.2374 27.7137 18.999 27.8125 18.7504 27.8125ZM23.7504 24.0625H11.2504C11.0017 24.0625 10.7633 23.9637 10.5874 23.7879C10.4116 23.6121 10.3129 23.3736 10.3129 23.125C10.3129 22.8764 10.4116 22.6379 10.5874 22.4621C10.7633 22.2863 11.0017 22.1875 11.2504 22.1875H23.7504C23.999 22.1875 24.2374 22.2863 24.4133 22.4621C24.5891 22.6379 24.6879 22.8764 24.6879 23.125C24.6879 23.3736 24.5891 23.6121 24.4133 23.7879C24.2374 23.9637 23.999 24.0625 23.7504 24.0625ZM24.6879 18.75C24.6846 18.9976 24.5848 19.2342 24.4097 19.4093C24.2346 19.5845 23.998 19.6843 23.7504 19.6875H11.2504C11.0027 19.6843 10.7661 19.5845 10.591 19.4093C10.4159 19.2342 10.3161 18.9976 10.3129 18.75V12.5C10.3161 12.2524 10.4159 12.0158 10.591 11.8407C10.7661 11.6655 11.0027 11.5657 11.2504 11.5625H23.7504C23.998 11.5657 24.2346 11.6655 24.4097 11.8407C24.5848 12.0158 24.6846 12.2524 24.6879 12.5V18.75ZM31.5629 30C31.5629 30.4144 31.3982 30.8118 31.1052 31.1049C30.8122 31.3979 30.4148 31.5625 30.0004 31.5625C29.586 31.5625 29.1885 31.3979 28.8955 31.1049C28.6025 30.8118 28.4379 30.4144 28.4379 30V13.4375H31.5629V30Z" fill="#7FB51F"/>
<path d="M12.188 13.4374H22.813V17.8124H12.188V13.4374Z" fill="#7FB51F"/>
</g>
<defs>
<clipPath id="clip0_379_9291">
<rect width="40" height="40" fill="white"/>
</clipPath>
</defs>
</svg>

<svg xmlns="http://www.w3.org/2000/svg" width="40" height="40" fill="none"><g clip-path="url(#a)"><path fill="#015637" d="M.279 28.952c-.353-3.012-.402-5.968.031-8.642.532-3.288 1.921-6.946 3.439-10.218 2.966-6.394 8.275-8.63 14.74-9.64C27.501-.952 39.922.453 40 11.36c-.452 3.9-3.435 14.743-13.506 15.57-3.33.274-4.575 3.618-6.042 7.447C16.592 44.45 1.57 39.979.279 28.952" opacity=".1"/><path fill="#7FB51F" d="M31.875 11.563h-3.437V8.124a1.563 1.563 0 0 0-1.563-1.562H8.125a1.56 1.56 0 0 0-1.562 1.562V28.75a4.69 4.69 0 0 0 4.687 4.688H30A3.44 3.44 0 0 0 33.438 30V13.125a1.563 1.563 0 0 0-1.563-1.562M18.75 27.813h-7.5a.938.938 0 0 1 0-1.875h7.5a.938.938 0 0 1 0 1.875m5-3.75h-12.5a.938.938 0 0 1 0-1.875h12.5a.938.938 0 0 1 0 1.875m.938-5.313a.95.95 0 0 1-.938.938h-12.5a.95.95 0 0 1-.937-.938V12.5a.95.95 0 0 1 .937-.937h12.5a.95.95 0 0 1 .938.937zM31.563 30a1.563 1.563 0 0 1-3.125 0V13.438h3.125z"/><path fill="#7FB51F" d="M12.188 13.437h10.625v4.375H12.188z"/></g><defs><clipPath id="a"><path fill="#fff" d="M0 0h40v40H0z"/></clipPath></defs></svg>
